X:1
T:Elephants (Force of Habit)
M:2/4
L:1/16
K:G
 D| G3 A E3 D| G3 B A3 e| d3 c B3 A| G3 A E3 D| E3 F G3 A| B3 c d3 e|\
 A3 B G3 D| G3 A| _B3 e d3 =B| F3 E G3 D| E3 F D3 E| F3 G B3 d| G3 A _B3 c|\
 d3 A =B3 e| d3 c B3 A| G3 D G3||
